icons/stored-as-new-query-24.svg

<?xml version="1.0" encoding="UTF-8"?><svg id="icons" xmlns="http://www.w3.org/2000/svg" viewBox="0 0 24 24"><defs><style>.cls-1{fill:none;}.cls-1,.cls-2{stroke-width:0px;}</style></defs><rect class="cls-1" width="24" height="24"/><path class="cls-2" d="M12,14v3h1v6h10v-6h1v-3h-12ZM22,22h-8v-5h8v5ZM23,16h-10v-1h10v1ZM20,19h-4v-1h4v1ZM3.41577,6.87714l-1.45129,1.45129.70709.70709,1.45129-1.45129c.26227.17371.55817.3006.87714.36536v2.05042h1v-2.05042c.31897-.06476.61487-.19165.87714-.36536l1.45129,1.45129.70709-.70709-1.45129-1.45129c.17365-.26227.3006-.55817.36536-.87714h2.05042v-1h-2.05042c-.06476-.31897-.19171-.61487-.36536-.87714l1.45129-1.45129-.70709-.70709-1.45129,1.45123c-.26227-.17365-.55817-.30054-.87714-.3653V1h-1v2.05042c-.31897.06476-.61487.19165-.87714.3653l-1.45129-1.45123-.70709.70709,1.45129,1.45129c-.17365.26227-.3006.55817-.36536.87714H1v1h2.05042c.06476.31897.19171.61487.36536.87714ZM5.5,4c.8269,0,1.5.6731,1.5,1.5s-.6731,1.5-1.5,1.5-1.5-.6731-1.5-1.5.6731-1.5,1.5-1.5ZM12,13h-2.57843c-.29486-.42267-.6424-.6662-1.03345-1,1.17975.18445,2.55481.24219,4.11188.24219,5.18848,0,8.5-1.27441,8.5-2.15234v-3.67841c-1.64313,1.04572-5.08203,1.58856-8.5,1.58856-.86749,0-1.73566-.03571-2.57617-.10498-.04736-.09711-.10089-.19269-.18164-.27344l-.62109-.62158h3.37891c5.5,0,8.5-1.32129,8.5-2s-3-2-8.5-2c-.9342,0-1.62982.04053-2.4173.10712.15765-.32129.12524-.69611-.0827-.99597.86694-.07355,1.60419-.11115,2.5-.11115,4.7207,0,9.491,1.03027,9.491,3l.009,8h-1v-1.42725c-1.02289.68396-2.74231,1.16278-4.71875,1.42725h-4.28125ZM7.92645,19.22925c.59998-.75201.97357-1.69244.97357-2.72925,0-2.43005-1.97003-4.40002-4.40002-4.40002S.09998,14.06995.09998,16.5s1.96997,4.39996,4.40002,4.39996c1.04041,0,1.9837-.37622,2.73694-.97992l3.08423,3.08423c.18561.18561.48645.18591.67242.00067l.01709-.01703c.08954-.08917.13995-.21033.14008-.33673s-.04999-.24762-.1394-.33704l-3.0849-3.0849ZM1.1001,16.50006c0-1.87457,1.52545-3.40002,3.40002-3.40002s3.40002,1.52545,3.40002,3.40002-1.52545,3.39996-3.40002,3.39996-3.40002-1.52545-3.40002-3.39996Z"/></svg>

<svg xmlns="http://www.w3.org/2000/svg" viewBox="0 0 24 24"><path stroke-width="0" fill="none" d="M0 0h24v24H0z"/><path d="M12 14v3h1v6h10v-6h1v-3H12zm10 8h-8v-5h8v5zm1-6H13v-1h10v1zm-3 3h-4v-1h4v1zM3.416 6.877L1.964 8.328l.708.708 1.45-1.452c.263.174.559.3.878.366V10h1V7.95a2.48 2.48 0 0 0 .877-.366l1.451 1.452.708-.708-1.452-1.45c.174-.263.3-.559.366-.878H10V5H7.95a2.483 2.483 0 0 0-.366-.877l1.452-1.451-.708-.708-1.45 1.452A2.483 2.483 0 0 0 6 3.05V1H5v2.05a2.483 2.483 0 0 0-.877.366L2.672 1.964l-.708.708 1.452 1.45A2.51 2.51 0 0 0 3.05 5H1v1h2.05c.065.319.192.615.366.877zM5.5 4C6.327 4 7 4.673 7 5.5S6.327 7 5.5 7 4 6.327 4 5.5 4.673 4 5.5 4zm6.5 9H9.422c-.295-.423-.643-.666-1.034-1 1.18.184 2.555.242 4.112.242 5.188 0 8.5-1.274 8.5-2.152V6.41C19.357 7.457 15.918 8 12.5 8c-.867 0-1.736-.036-2.576-.105a.981.981 0 0 0-.182-.273L9.122 7H12.5C18 7 21 5.679 21 5s-3-2-8.5-2c-.934 0-1.63.04-2.417.107A.978.978 0 0 0 10 2.111 27.935 27.935 0 0 1 12.5 2c4.72 0 9.491 1.03 9.491 3L22 13h-1v-1.427c-1.023.684-2.742 1.163-4.719 1.427H12zm-4.074 6.23c.6-.753.974-1.693.974-2.73a4.4 4.4 0 1 0-4.4 4.4c1.04 0 1.984-.376 2.737-.98l3.084 3.084a.476.476 0 0 0 .673 0l.017-.016a.476.476 0 0 0 0-.674L7.926 19.23zM1.1 16.5c0-1.875 1.526-3.4 3.4-3.4s3.4 1.525 3.4 3.4-1.525 3.4-3.4 3.4-3.4-1.525-3.4-3.4z" stroke-width="0"/></svg>
